X:1
T:Top of the world
N: Transposed
C: Carpenters
Z: https://musescore.com/user/5045401/scores/5497340?srsltid=AfmBOorAXBNfAboIUTHhcy44lx8LJIE86pJn9JiGKJb6XcXTTTg38L04
L:1/8
M:C
K:F
"F"CA/G/-GF "Bb"EF<DE|"F"C6 AB|"Am"cc/c/- cA "Gm"GA/B/- BG|"F"A6 Bc|
"Bb"d2 dB/G/- "C"G2 Gd|"Am"c2 Bc/A/- "D7"A2 GA|"Gm7"BB BA/B/- BAGF|"Csus4"C8:|

